src/img/mail_icon.svg

<svg width="21" height="20" viewBox="0 0 21 20" fill="none" xmlns="http://www.w3.org/2000/svg">
<path d="M16.7503 14.8491C16.7503 14.9914 16.6248 15.117 16.4825 15.117H4.16106C4.01876 15.117 3.89321 14.9914 3.89321 14.8491V8.42057C4.06899 8.62146 4.26151 8.80561 4.47077 8.97302C5.66776 9.89378 6.87312 10.8313 8.03662 11.8023C8.66441 12.3296 9.44287 12.9741 10.3134 12.9741H10.3218H10.3301C11.2007 12.9741 11.9791 12.3296 12.6069 11.8023C13.7704 10.8313 14.9758 9.89378 16.1728 8.97302C16.382 8.80561 16.5746 8.62146 16.7503 8.42057V14.8491ZM16.7503 6.05171C16.7503 6.7632 16.064 7.69233 15.5199 8.11923C14.3982 8.99813 13.2766 9.88541 12.1633 10.7727C11.7197 11.1326 10.9161 11.9027 10.3301 11.9027H10.3218H10.3134C9.72747 11.9027 8.9239 11.1326 8.48026 10.7727C7.36698 9.88541 6.24533 8.99813 5.12367 8.11923C4.37033 7.52492 3.89321 6.69624 3.89321 5.742C3.89321 5.5997 4.01876 5.47414 4.16106 5.47414H16.4825C16.8006 5.47414 16.7503 5.84244 16.7503 6.05171ZM17.8218 5.742C17.8218 5.00539 17.2191 4.40271 16.4825 4.40271H4.16106C3.42446 4.40271 2.82178 5.00539 2.82178 5.742V14.8491C2.82178 15.5857 3.42446 16.1884 4.16106 16.1884H16.4825C17.2191 16.1884 17.8218 15.5857 17.8218 14.8491V5.742Z" fill="#3E9CDC"/>
</svg>

<svg width="21" height="20" fill="none" xmlns="http://www.w3.org/2000/svg"><path d="M16.75 14.85a.275.275 0 01-.267.267H4.16a.275.275 0 01-.268-.268V8.421c.176.2.369.385.578.552 1.197.92 2.402 1.858 3.566 2.83.627.527 1.406 1.171 2.276 1.171h.017c.87 0 1.65-.644 2.277-1.172a114.783 114.783 0 013.566-2.829c.209-.167.402-.352.577-.552v6.428zm0-8.798c0 .711-.686 1.64-1.23 2.067a517.56 517.56 0 00-3.357 2.654c-.443.36-1.247 1.13-1.833 1.13h-.017c-.586 0-1.39-.77-1.833-1.13a518.102 518.102 0 00-3.356-2.654c-.754-.594-1.23-1.423-1.23-2.377 0-.142.125-.268.267-.268h12.322c.318 0 .267.368.267.578zm1.072-.31c0-.737-.603-1.34-1.34-1.34H4.163c-.738 0-1.34.603-1.34 1.34v9.107c0 .737.602 1.34 1.34 1.34h12.32c.737 0 1.34-.603 1.34-1.34V5.742z" fill="#3E9CDC"/></svg>
